X: 06002
T: ARTHUR WELCH'S
T: NEW ENGLAND ACCORDION CENTER POLKA
N: It's not clear whether Bob really intended 1 or 2 titles here.
N: But as 2 titles, it fits better on a page.
C: Bob McQuillen 31 May 82
B: Bob's Note Book 6 #2
%R: polka, reel
Z: 2021 John Chambers <jc:trillian.mit.edu>
M: C
L: 1/8
K: D
|:A2BA FAdA | FAdA f2d2 | cAdA e2cA | d2e2 f4 |\
| A2BA FAdA | FAdA f2d2 | cAdA e2cA |1 d2f2 d4 :|2 d2f2 d2=c2 ||
|:B2G2 GABG | A2F2 FAdA | cBcd e2cA | e2A2 A2=c2 |\
| B2G2 GABG | A2F2 FAdA | cBcd e2cA |1 d2f2 d2=c2 :|2 d2f2 d4 |]
%%begintext align
%% Check it out,
%% you box people - 36 Massabesic St., Manchester,
%% N.H. 603-669-0424 - Arthur has a great store and
%% you will like what he does.
%% Arthur, that's the longest name
%% I ever put on a tune! Best
%% wishes always to you & Mrs. W.
%%endtext
%%text (Unfortunately, Arthur retired a few years ago, and his shop no longer exists.)

%%sep 1 1 500

%%sep 1 1 500

